X:544
T: Zimmerleute (244), S. 523
N: T0432
O: Luxemburg
S: Singendes Volk, Esch-Alzette, 1937 posth.]
N: Junglinster, Rammeldingen, u.a., mehrere Snger,
N: Zimmerleute und Maurer (hhh)
R: Berufslied]
M: 2/4
L: 1/16
K: F
c4 | A2A2c2A2 | F4
G4 | A2c2B2d2 | c4z2
c2 | c2c2c2f2 | d4d2
c2 | B3AB2d2 | c3dc2
B2 | A3GA2B2 | c4
d4 | c3BB2c2 | A4

